X: 2
T: Magaloufou
Z: SiGarb
S: https://thesession.org/tunes/11023#setting20553
R: polka
M: 2/4
L: 1/8
K: Gmin
d>c de|dB GA/B/|c>B cd|cA FG/A/|B>A Bc|BA/G/ FG|A>B AG|1F2 G2:|2F2 Gg/a/|]bg da-|af c2|ge Bf-|fe d2|e>d cd|eg GA|1B>c dc|B2 Ag/a/:|2B>c BA|A2 G2|]
